;FLAVOR:Marlin
;TIME:235
;Filament used: 0.0541663m
;Layer height: 0.1
;MINX:113.75
;MINY:91.25
;MINZ:0.13
;MAXX:141.25
;MAXY:118.75
;MAXZ:5.03
;Generated with Cura_SteamEngine 4.12.0
M140 S50
M105
M190 S50
M104 S195
M105
M109 S195
M82 ;absolute extrusion mode
M220 S100 ;reset feedrate
M221 S100 ;reset flowrate
G90 ;use absolute coordinates
M82 ;absolute extrusion mode
G28 ;home
G1 Z2 F1500 ;raise z
G92 E0 ;reset extruder

G1 X75 Y5 F5000 ;start position
G1 Z0.28 F1500 ;lower z
G1 E4 F500 ;prime the filament
G1 X180 E10 F500 ;1st line
G1 Y5.4 F5000
G1 X75 E20 F500 ;2nd line
G1 Z2 F1500 ;raise z
G92 E0 ;reset extruder
G92 E0
G92 E0
G1 F1500 E-6.6
;LAYER_COUNT:50
;LAYER:0
M106 S255
M204 S3000
M205 X8 Y8
G0 F7800 X116.32 Y95.364 Z0.13
M204 S500
;TYPE:SKIRT
G1 F1500 E0
G1 F2527.5 X116.952 Y94.657 E0.02563
G1 X117.642 Y94.006 E0.05126
G1 X118.385 Y93.416 E0.0769
G1 X119.174 Y92.89 E0.10253
G1 X120.005 Y92.433 E0.12816
G1 X120.872 Y92.047 E0.1538
G1 X121.768 Y91.736 E0.17943
G1 X122.687 Y91.501 E0.20507
G1 X123.622 Y91.345 E0.23068
G1 X124.694 Y91.263 E0.25974
G1 X125.015 Y91.254 E0.26842
G1 X125.33 Y91.25 E0.27693
G1 X129.293 Y91.25 E0.38402
G1 X130.152 Y91.261 E0.40724
G1 X131.099 Y91.315 E0.43287
G1 X132.038 Y91.448 E0.4585
G1 X132.963 Y91.66 E0.48415
G1 X133.866 Y91.948 E0.50976
G1 X134.742 Y92.312 E0.5354
G1 X135.584 Y92.749 E0.56103
G1 X136.386 Y93.255 E0.58666
G1 X137.143 Y93.826 E0.61228
G1 X137.849 Y94.46 E0.63793
G1 X138.5 Y95.15 E0.66356
G1 X139.089 Y95.893 E0.68918
G1 X139.614 Y96.683 E0.71482
G1 X140.071 Y97.514 E0.74045
G1 X140.456 Y98.381 E0.76608
G1 X140.767 Y99.277 E0.79171
G1 X141.001 Y100.196 E0.81734
G1 X141.156 Y101.132 E0.84298
G1 X141.237 Y102.194 E0.87176
G1 X141.246 Y102.514 E0.88041
G1 X141.25 Y102.83 E0.88895
G1 X141.249 Y106.903 E0.99902
G1 X141.24 Y107.63 E1.01867
G1 X141.188 Y108.577 E1.0443
G1 X141.057 Y109.517 E1.06995
G1 X140.847 Y110.442 E1.09558
G1 X140.56 Y111.346 E1.12121
G1 X140.198 Y112.222 E1.14682
G1 X139.763 Y113.065 E1.17246
G1 X139.259 Y113.868 E1.19808
G1 X138.689 Y114.626 E1.22371
G1 X138.057 Y115.334 E1.24936
G1 X137.367 Y115.985 E1.27499
G1 X136.626 Y116.576 E1.30061
G1 X135.837 Y117.103 E1.32625
G1 X135.006 Y117.561 E1.35189
G1 X134.14 Y117.948 E1.37752
G1 X133.245 Y118.26 E1.40314
G1 X132.326 Y118.496 E1.42878
G1 X131.391 Y118.654 E1.4544
G1 X130.306 Y118.737 E1.48381
G1 X129.985 Y118.746 E1.49249
G1 X129.67 Y118.75 E1.501
G1 X125.562 Y118.749 E1.61201
G1 X124.864 Y118.74 E1.63088
G1 X123.917 Y118.688 E1.65651
G1 X122.978 Y118.556 E1.68213
G1 X122.053 Y118.346 E1.70777
G1 X121.149 Y118.058 E1.73341
G1 X120.273 Y117.695 E1.75903
G1 X119.43 Y117.26 E1.78467
G1 X118.627 Y116.755 E1.8103
G1 X117.869 Y116.185 E1.83593
G1 X117.162 Y115.553 E1.86156
G1 X116.511 Y114.863 E1.88719
G1 X115.92 Y114.121 E1.91283
G1 X115.394 Y113.332 E1.93845
G1 X114.936 Y112.501 E1.96409
G1 X114.55 Y111.635 E1.98972
G1 X114.238 Y110.739 E2.01536
G1 X114.003 Y109.82 E2.04099
G1 X113.846 Y108.885 E2.06661
G1 X113.763 Y107.795 E2.09615
G1 X113.754 Y107.462 E2.10515
G1 X113.75 Y107.158 E2.11337
G1 X113.751 Y103.022 E2.22514
G1 X113.76 Y102.357 E2.24311
G1 X113.813 Y101.41 E2.26875
G1 X113.945 Y100.471 E2.29437
G1 X114.156 Y99.546 E2.32001
G1 X114.444 Y98.642 E2.34565
G1 X114.808 Y97.766 E2.37128
G1 X115.243 Y96.924 E2.3969
G1 X115.749 Y96.121 E2.42254
G1 X116.32 Y95.364 E2.44817
M204 S3000
G0 F7800 X116.813 Y95.553
M204 S500
G1 F2527.5 X117.443 Y94.873 E2.47322
G1 X118.129 Y94.249 E2.49828
G1 X118.866 Y93.687 E2.52333
G1 X119.649 Y93.191 E2.54837
G1 X120.472 Y92.763 E2.57344
G1 X121.328 Y92.409 E2.59848
G1 X122.212 Y92.129 E2.62353
G1 X123.117 Y91.927 E2.64859
G1 X124.036 Y91.803 E2.67365
G1 X124.708 Y91.763 E2.69184
G1 X125.029 Y91.754 E2.70052
G1 X125.33 Y91.75 E2.70866
G1 X129.293 Y91.75 E2.81575
G1 X130.145 Y91.761 E2.83878
G1 X131.071 Y91.814 E2.86384
G1 X131.988 Y91.947 E2.88888
G1 X132.891 Y92.159 E2.91395
G1 X133.772 Y92.447 E2.939
G1 X134.625 Y92.81 E2.96405
G1 X135.444 Y93.246 E2.98912
G1 X136.222 Y93.75 E3.01417
G1 X136.953 Y94.319 E3.03921
G1 X137.633 Y94.95 E3.06428
G1 X138.256 Y95.636 E3.08932
G1 X138.818 Y96.374 E3.11439
G1 X139.314 Y97.157 E3.13943
G1 X139.74 Y97.981 E3.1645
G1 X140.094 Y98.837 E3.18953
G1 X140.373 Y99.722 E3.21461
G1 X140.575 Y100.627 E3.23967
G1 X140.698 Y101.546 E3.26473
G1 X140.737 Y102.208 E3.28265
G1 X140.746 Y102.528 E3.2913
G1 X140.75 Y102.83 E3.29946
G1 X140.749 Y106.897 E3.40937
G1 X140.74 Y107.624 E3.42901
G1 X140.689 Y108.55 E3.45408
G1 X140.558 Y109.468 E3.47914
G1 X140.348 Y110.371 E3.50419
G1 X140.061 Y111.252 E3.52923
G1 X139.7 Y112.106 E3.55428
G1 X139.266 Y112.926 E3.57936
G1 X138.763 Y113.705 E3.60441
G1 X138.195 Y114.437 E3.62945
G1 X137.566 Y115.118 E3.6545
G1 X136.881 Y115.743 E3.67956
G1 X136.144 Y116.306 E3.70463
G1 X135.362 Y116.803 E3.72967
G1 X134.539 Y117.231 E3.75473
G1 X133.683 Y117.587 E3.77979
G1 X132.8 Y117.868 E3.80483
G1 X131.895 Y118.071 E3.82989
G1 X130.976 Y118.196 E3.85496
G1 X130.292 Y118.237 E3.87347
G1 X129.971 Y118.246 E3.88215
G1 X129.67 Y118.25 E3.89029
G1 X125.568 Y118.249 E4.00114
G1 X124.87 Y118.24 E4.02
G1 X123.945 Y118.188 E4.04504
G1 X123.027 Y118.057 E4.0701
G1 X122.124 Y117.847 E4.09515
G1 X121.242 Y117.56 E4.12022
G1 X120.389 Y117.197 E4.14527
G1 X119.57 Y116.763 E4.17032
G1 X118.791 Y116.26 E4.19538
G1 X118.058 Y115.692 E4.22044
G1 X117.378 Y115.062 E4.24549
G1 X116.754 Y114.377 E4.27053
G1 X116.191 Y113.64 E4.29559
G1 X115.694 Y112.857 E4.32065
G1 X115.266 Y112.034 E4.34572
G1 X114.911 Y111.178 E4.37076
G1 X114.631 Y110.294 E4.39582
G1 X114.428 Y109.39 E4.42086
G1 X114.304 Y108.471 E4.44592
G1 X114.263 Y107.781 E4.4646
G1 X114.254 Y107.448 E4.4736
G1 X114.25 Y107.158 E4.48144
G1 X114.251 Y103.029 E4.59302
G1 X114.26 Y102.364 E4.61099
G1 X114.312 Y101.438 E4.63606
G1 X114.445 Y100.52 E4.66112
G1 X114.655 Y99.617 E4.68618
G1 X114.943 Y98.736 E4.71123
G1 X115.305 Y97.883 E4.73627
G1 X115.74 Y97.064 E4.76133
G1 X116.244 Y96.285 E4.7864
G1 X116.813 Y95.553 E4.81146
M204 S3000
G0 F7800 X117.305 Y95.748
M204 S500
G1 F2527.5 X117.932 Y95.094 E4.83594
G1 X118.614 Y94.499 E4.8604
G1 X119.346 Y93.966 E4.88487
G1 X120.122 Y93.499 E4.90934
G1 X120.936 Y93.103 E4.93381
G1 X121.781 Y92.78 E4.95825
G1 X122.653 Y92.534 E4.98274
G1 X123.542 Y92.365 E5.00719
G1 X124.722 Y92.263 E5.0392
G1 X125.043 Y92.254 E5.04788
G1 X125.33 Y92.25 E5.05563
G1 X129.293 Y92.25 E5.16273
G1 X130.138 Y92.261 E5.18557
G1 X131.042 Y92.314 E5.21004
G1 X131.937 Y92.446 E5.23449
G1 X132.818 Y92.657 E5.25897
G1 X133.676 Y92.945 E5.28342
G1 X134.506 Y93.308 E5.30791
G1 X135.3 Y93.742 E5.33236
G1 X136.053 Y94.245 E5.35683
G1 X136.759 Y94.812 E5.3813
G1 X137.411 Y95.439 E5.40574
G1 X138.006 Y96.121 E5.4302
G1 X138.539 Y96.853 E5.45467
G1 X139.005 Y97.63 E5.47916
G1 X139.4 Y98.444 E5.50361
G1 X139.722 Y99.29 E5.52807
G1 X139.968 Y100.161 E5.55253
G1 X140.137 Y101.051 E5.57701
G1 X140.237 Y102.222 E5.60877
G1 X140.246 Y102.542 E5.61742
G1 X140.25 Y102.83 E5.6252
G1 X140.249 Y106.891 E5.73495
G1 X140.24 Y107.618 E5.7546
G1 X140.189 Y108.522 E5.77906
G1 X140.058 Y109.418 E5.80354
G1 X139.849 Y110.298 E5.82798
G1 X139.563 Y111.157 E5.85244
G1 X139.202 Y111.988 E5.87693
G1 X138.769 Y112.783 E5.90139
G1 X138.268 Y113.537 E5.92586
G1 X137.702 Y114.244 E5.95033
G1 X137.077 Y114.898 E5.97478
G1 X136.395 Y115.494 E5.99925
G1 X135.664 Y116.028 E6.02372
G1 X134.889 Y116.495 E6.04817
G1 X134.075 Y116.892 E6.07264
G1 X133.23 Y117.216 E6.0971
G1 X132.359 Y117.464 E6.12157
G1 X131.47 Y117.634 E6.14603
G1 X130.278 Y117.737 E6.17836
G1 X129.957 Y117.746 E6.18704
G1 X129.67 Y117.75 E6.1948
G1 X125.575 Y117.749 E6.30546
G1 X124.877 Y117.74 E6.32433
G1 X123.973 Y117.689 E6.34879
G1 X123.077 Y117.557 E6.37327
G1 X122.197 Y117.348 E6.39771
G1 X121.338 Y117.061 E6.42219
G1 X120.508 Y116.7 E6.44665
G1 X119.713 Y116.267 E6.47111
G1 X118.959 Y115.765 E6.49559
G1 X118.253 Y115.199 E6.52004
G1 X117.599 Y114.573 E6.54451
G1 X117.003 Y113.891 E6.56898
G1 X116.469 Y113.16 E6.59345
G1 X116.002 Y112.384 E6.61792
G1 X115.606 Y111.57 E6.64238
G1 X115.282 Y110.725 E6.66684
G1 X115.035 Y109.854 E6.69131
G1 X114.865 Y108.965 E6.71577
G1 X114.763 Y107.768 E6.74823
G1 X114.754 Y107.435 E6.75723
G1 X114.75 Y107.158 E6.76472
G1 X114.751 Y103.035 E6.87614
G1 X114.76 Y102.37 E6.89411
G1 X114.812 Y101.466 E6.91858
G1 X114.944 Y100.571 E6.94303
G1 X115.154 Y99.69 E6.9675
G1 X115.441 Y98.832 E6.99195
G1 X115.803 Y98.002 E7.01642
G1 X116.237 Y97.207 E7.0409
G1 X116.739 Y96.454 E7.06536
G1 X117.305 Y95.748 E7.08981
M104 S183
M204 S3000
G1 F1500 E0.48981
;MESH:5mmCube.stl
G0 F7800 X124.588 Y102.089
G0 X125.414 Y102.914
G0 X128.418 Y104.082
G0 X128.6 Y106.1
M204 S500
;TYPE:WALL-INNER
G1 F1500 E7.08981
G1 F1749.8 X126.4 Y106.1 E7.13642
G1 X126.4 Y103.9 E7.18303
G1 X128.6 Y103.9 E7.22964
G1 X128.6 Y106.1 E7.27625
M204 S3000
G0 F7800 X129 Y106.5
M204 S500
G1 F1749.8 X126 Y106.5 E7.33981
G1 X126 Y103.5 E7.40337
G1 X129 Y103.5 E7.46693
G1 X129 Y106.5 E7.53049
M204 S3000
G0 F7800 X129.4 Y106.9
M204 S500
G1 F1749.8 X125.6 Y106.9 E7.611
G1 X125.6 Y103.1 E7.69151
G1 X129.4 Y103.1 E7.77202
G1 X129.4 Y106.9 E7.85253
M204 S3000
G0 F7800 X129.8 Y107.3
M204 S500
;TYPE:WALL-OUTER
G1 F1749.8 X125.2 Y107.3 E7.94701
G1 X125.2 Y102.7 E8.04148
G1 X129.8 Y102.7 E8.13596
G1 X129.8 Y107.3 E8.23043
M204 S3000
G0 F7800 X129.53 Y107.03
G0 X128.49 Y105.71
G0 X128.21 Y105.71
M204 S500
;TYPE:SKIN
G1 F1749.8 X126.79 Y105.71 E8.26113
G1 X126.79 Y104.29 E8.29183
G1 X128.21 Y104.29 E8.32253
G1 X128.21 Y105.71 E8.35323
M204 S3000
G0 F7800 X128.049 Y104.856
M204 S500
G1 F1749.8 X127.643 Y104.45 E8.36564
M204 S3000
G0 F7800 X127.077 Y104.45
M204 S500
G1 F1749.8 X128.049 Y105.421 E8.39535
M204 S3000
G0 F7800 X127.611 Y105.549
M204 S500
G1 F1749.8 X126.949 Y104.887 E8.41559
M204 S3000
G0 F7800 X126.949 Y105.452
M204 S500
G1 F1749.8 X127.045 Y105.549 E8.41854
M204 S3000
G0 F7800 X127.045 Y106.29
;MESH:NONMESH
G0 F300 X127.045 Y106.29 Z0.23
G0 F7800 X128.6 Y106.1
;TIME_ELAPSED:13.687051
;LAYER:1
M140 S45
M204 S500
;TYPE:WALL-INNER
;MESH:5mmCube.stl
G1 F814.3 X126.4 Y106.1 E8.45439
G1 X126.4 Y103.9 E8.49025
G1 X128.6 Y103.9 E8.5261
G1 X128.6 Y106.1 E8.56195
M204 S3000
G0 F7800 X129 Y106.5
M204 S500
G1 F814.3 X126 Y106.5 E8.61085
G1 X126 Y103.5 E8.65974
G1 X129 Y103.5 E8.70863
G1 X129 Y106.5 E8.75752
M204 S3000
G0 F7800 X129.4 Y106.9
M204 S500
G1 F814.3 X125.6 Y106.9 E8.81945
G1 X125.6 Y103.1 E8.88138
G1 X129.4 Y103.1 E8.94331
G1 X129.4 Y106.9 E9.00525
M204 S3000
G0 F7800 X129.8 Y107.3
M204 S500
;TYPE:WALL-OUTER
G1 F600 X125.2 Y107.3 E9.07792
G1 X125.2 Y102.7 E9.15059
G1 X129.8 Y102.7 E9.22327
G1 X129.8 Y107.3 E9.29594
M204 S3000
G0 F7800 X129.53 Y107.03
G0 X128.49 Y105.71
G0 X128.21 Y105.71
M204 S500
;TYPE:SKIN
G1 F814.3 X126.79 Y105.71 E9.31955
G1 X126.79 Y104.29 E9.34317
G1 X128.21 Y104.29 E9.36678
G1 X128.21 Y105.71 E9.3904
M204 S3000
G0 F7800 X128.049 Y105.013
M204 S500
G1 F814.3 X127.511 Y105.55 E9.40304
M204 S3000
G0 F7800 X126.949 Y105.547
M204 S500
G1 F814.3 X128.046 Y104.45 E9.42884
M204 S3000
G0 F7800 X127.48 Y104.45
M204 S500
G1 F814.3 X126.949 Y104.981 E9.44133
M204 S3000
G0 F7800 X126.21 Y104.981
;MESH:NONMESH
G0 F300 X126.21 Y104.981 Z0.33
G0 F7800 X126.582 Y105.918
G0 X128.6 Y106.1
;TIME_ELAPSED:19.608985
;LAYER:2
M204 S500
;TYPE:WALL-INNER
;MESH:5mmCube.stl
G1 F1200 X126.4 Y106.1 E9.47718
G1 X126.4 Y103.9 E9.51304
G1 X128.6 Y103.9 E9.54889
G1 X128.6 Y106.1 E9.58474
M204 S3000
G0 F7800 X129 Y106.5
M204 S500
G1 F1200 X126 Y106.5 E9.63364
G1 X126 Y103.5 E9.68253
G1 X129 Y103.5 E9.73142
G1 X129 Y106.5 E9.78031
M204 S3000
G0 F7800 X129.4 Y106.9
M204 S500
G1 F1200 X125.6 Y106.9 E9.84224
G1 X125.6 Y103.1 E9.90417
G1 X129.4 Y103.1 E9.96611
G1 X129.4 Y106.9 E10.02804
M204 S3000
G0 F7800 X129.8 Y107.3
M204 S500
;TYPE:WALL-OUTER
G1 F600 X125.2 Y107.3 E10.10071
G1 X125.2 Y102.7 E10.17338
G1 X129.8 Y102.7 E10.24606
G1 X129.8 Y107.3 E10.31873
M204 S3000
G0 F7800 X129.53 Y107.03
G0 X128.49 Y105.71
G0 X128.21 Y105.71
M204 S500
;TYPE:SKIN
G1 F1200 X126.79 Y105.71 E10.34234
G1 X126.79 Y104.29 E10.36596
G1 X128.21 Y104.29 E10.38957
G1 X128.21 Y105.71 E10.41319
M204 S3000
G0 F7800 X128.049 Y104.856
M204 S500
G1 F1200 X127.643 Y104.45 E10.42274
M204 S3000
G0 F7800 X127.077 Y104.45
M204 S500
G1 F1200 X128.049 Y105.421 E10.44558
M204 S3000
G0 F7800 X127.611 Y105.549
M204 S500
G1 F1200 X126.949 Y104.887 E10.46115
M204 S3000
G0 F7800 X126.949 Y105.452
M204 S500
G1 F1200 X127.045 Y105.549 E10.46342
M204 S3000
G0 F7800 X127.045 Y106.29
;MESH:NONMESH
G0 F300 X127.045 Y106.29 Z0.43
G0 F7800 X128.6 Y106.1
;TIME_ELAPSED:24.670550
;LAYER:3
M204 S500
;TYPE:WALL-INNER
;MESH:5mmCube.stl
G1 F1200 X126.4 Y106.1 E10.49928
G1 X126.4 Y103.9 E10.53513
G1 X128.6 Y103.9 E10.57099
G1 X128.6 Y106.1 E10.60684
M204 S3000
G0 F7800 X129 Y106.5
M204 S500
G1 F1200 X126 Y106.5 E10.65573
G1 X126 Y103.5 E10.70463
G1 X129 Y103.5 E10.75352
G1 X129 Y106.5 E10.80241
M204 S3000
G0 F7800 X129.4 Y106.9
M204 S500
G1 F1200 X125.6 Y106.9 E10.86434
G1 X125.6 Y103.1 E10.92627
G1 X129.4 Y103.1 E10.9882
G1 X129.4 Y106.9 E11.05013
M204 S3000
G0 F7800 X129.8 Y107.3
M204 S500
;TYPE:WALL-OUTER
G1 F600 X125.2 Y107.3 E11.12281
G1 X125.2 Y102.7 E11.19548
G1 X129.8 Y102.7 E11.26815
G1 X129.8 Y107.3 E11.34083
M204 S3000
G0 F7800 X129.53 Y107.03
G0 X128.49 Y105.71
G0 X128.21 Y105.71
M204 S500
;TYPE:SKIN
G1 F1200 X126.79 Y105.71 E11.36444
G1 X126.79 Y104.29 E11.38806
G1 X128.21 Y104.29 E11.41167
G1 X128.21 Y105.71 E11.43528
M204 S3000
G0 F7800 X128.049 Y105.013
M204 S500
G1 F1200 X127.511 Y105.55 E11.44793
M204 S3000
G0 F7800 X126.949 Y105.547
M204 S500
G1 F1200 X128.046 Y104.45 E11.47373
M204 S3000
G0 F7800 X127.48 Y104.45
M204 S500
G1 F1200 X126.949 Y104.981 E11.48621
M204 S3000
G0 F7800 X126.21 Y104.981
;MESH:NONMESH
G0 F300 X126.21 Y104.981 Z0.53
G0 F7800 X126.582 Y105.918
G0 X128.6 Y106.1
;TIME_ELAPSED:29.738917
;LAYER:4
M204 S500
;TYPE:WALL-INNER
;MESH:5mmCube.stl
G1 F1200 X126.4 Y106.1 E11.52207
G1 X126.4 Y103.9 E11.55792
G1 X128.6 Y103.9 E11.59378
G1 X128.6 Y106.1 E11.62963
M204 S3000
G0 F7800 X129 Y106.5
M204 S500
G1 F1200 X126 Y106.5 E11.67852
G1 X126 Y103.5 E11.72742
G1 X129 Y103.5 E11.77631
G1 X129 Y106.5 E11.8252
M204 S3000
G0 F7800 X129.4 Y106.9
M204 S500
G1 F1200 X125.6 Y106.9 E11.88713
G1 X125.6 Y103.1 E11.94906
G1 X129.4 Y103.1 E12.01099
G1 X129.4 Y106.9 E12.07292
M204 S3000
G0 F7800 X129.8 Y107.3
M204 S500
;TYPE:WALL-OUTER
G1 F600 X125.2 Y107.3 E12.1456
G1 X125.2 Y102.7 E12.21827
G1 X129.8 Y102.7 E12.29094
G1 X129.8 Y107.3 E12.36362
M204 S3000
G0 F7800 X129.53 Y107.03
G0 X128.49 Y105.71
G0 X128.21 Y105.71
M204 S500
;TYPE:SKIN
G1 F1200 X126.79 Y105.71 E12.38723
G1 X126.79 Y104.29 E12.41085
G1 X128.21 Y104.29 E12.43446
G1 X128.21 Y105.71 E12.45808
M204 S3000
G0 F7800 X128.049 Y104.856
M204 S500
G1 F1200 X127.643 Y104.45 E12.46762
M204 S3000
G0 F7800 X127.077 Y104.45
M204 S500
G1 F1200 X128.049 Y105.421 E12.49047
M204 S3000
G0 F7800 X127.611 Y105.549
M204 S500
G1 F1200 X126.949 Y104.887 E12.50604
M204 S3000
G0 F7800 X126.949 Y105.452
M204 S500
G1 F1200 X127.045 Y105.549 E12.50831
M204 S3000
G0 F7800 X127.045 Y106.29
;MESH:NONMESH
G0 F300 X127.045 Y106.29 Z0.63
G0 F7800 X128.6 Y106.1
;TIME_ELAPSED:34.800483
;LAYER:5
M204 S500
;TYPE:WALL-INNER
;MESH:5mmCube.stl
G1 F1200 X126.4 Y106.1 E12.54416
G1 X126.4 Y103.9 E12.58002
G1 X128.6 Y103.9 E12.61587
G1 X128.6 Y106.1 E12.65173
M204 S3000
G0 F7800 X129 Y106.5
M204 S500
G1 F1200 X126 Y106.5 E12.70062
G1 X126 Y103.5 E12.74951
G1 X129 Y103.5 E12.79841
G1 X129 Y106.5 E12.8473
M204 S3000
G0 F7800 X129.4 Y106.9
M204 S500
G1 F1200 X125.6 Y106.9 E12.90923
G1 X125.6 Y103.1 E12.97116
G1 X129.4 Y103.1 E13.03309
G1 X129.4 Y106.9 E13.09502
M204 S3000
G0 F7800 X129.8 Y107.3
M204 S500
;TYPE:WALL-OUTER
G1 F600 X125.2 Y107.3 E13.16769
G1 X125.2 Y102.7 E13.24037
G1 X129.8 Y102.7 E13.31304
G1 X129.8 Y107.3 E13.38571
M204 S3000
G0 F7800 X129.53 Y107.03
G0 X128.49 Y105.71
G0 X128.21 Y105.71
M204 S500
;TYPE:SKIN
G1 F1200 X126.79 Y105.71 E13.40933
G1 X126.79 Y104.29 E13.43294
G1 X128.21 Y104.29 E13.45656
G1 X128.21 Y105.71 E13.48017
M204 S3000
